X: 4
T: Yellow Stockings   [F#m]
T: Mad Moll
T: Virgin Queen, The
O: Chappell 1856
%date 1856
M: 9/8
L: 1/8
S: Chappell "Popular Music of the Olden Time" v.2 p.74 1855-6
K: F#m
E | "F#m"A>Bc AFF (AF)F | A>Bc (AF)F "E"G2E | "F#m"A>Bc AFF (AF)F | "E"G>AB BcB G2 :| 
|:\ 
E | "A"A>Bc ecc (ec)c | (A>B)c ecc "E7"e2B | "A"A>Bc "E"gee gee | G>AB (Bc)B G2 :|
